X:269
T: Shange,manzai gurou qing
N: C0443
O: China,Taiwan, Xinzhu
S: IV, 620]
N: Die Kejia stammen aus Fujian und Guangdong. Dieses Lied ist von
N: Taiwan bis Guangdong verbreitet. Die 1 ist manchmal leicht,
N: manchmal tatsaechlich um 1/2 Ton erhoeht, manachmal auch gar nicht.
N: Wenig Verzierungen, Glissandi.
R: Shange, Kejia shange, Shange,zai)]
M: 2/4
L: 1/16
K: G
B2e6 | B2e2B4 | B2E6 |
e2B2e2B2 | E2G4(3BGE | E8 |
B2e4B2 | E2GBE4 |
B,6E2 | B2GBG2E2 |
^D2E6 | E3DB,4 | E2z6 |
e2B2e4 | B2e2B4 | B2E6 |
e2BeB4 | B2G4^D2 | E8 |
B2e4B2 | E2BGE4 |
E2B,6 | e2B2g2e2 |
^d2e4(3=ded | e3^dB2=d2 | e8

@@@ Tune index: 6270
